images/ogn.svg

<svg height="250" viewBox="0 0 250 250" width="250" xmlns="http://www.w3.org/2000/svg"><path d="m125 0c69.035156 0 125 55.964844 125 125s-55.964844 125-125 125-125-55.964844-125-125 55.964844-125 125-125zm0 0" fill="#1a82ff"/><path d="m170.699219 176.472656c-10.820313 13.257813-26.039063 19.882813-45.65625 19.882813-19.617188 0-34.839844-6.625-45.664063-19.882813-10.828125-13.265625-16.242187-30.410156-16.234375-51.4375.003907-21.027344 5.414063-38.167968 16.226563-51.429687 10.820312-13.261719 26.042968-19.894531 45.664062-19.890625 19.621094 0 34.839844 6.632812 45.65625 19.890625 10.824219 13.257812 16.234375 30.402343 16.238282 51.429687 0 21.027344-5.410157 38.175782-16.230469 51.4375zm0 0" fill="#fff"/><g fill="#1a82ff"><path d="m124.8125 168.636719c5.167969 0 9.554688-1.40625 13.171875-4.222657 3.617187-2.8125 6.238281-6.628906 7.859375-11.449218 1.617188-4.820313 2.761719-9.445313 3.425781-13.863282.667969-4.421874 1-9.109374.996094-14.066406 0-6.097656-.371094-11.558594-1.109375-16.378906l-44.492188 46.363281c4.113282 9.074219 10.832032 13.613281 20.148438 13.617188zm0 0"/><path d="m125.257812 81.4375c-5.164062 0-9.554687 1.40625-13.171874 4.21875-3.617188 2.816406-6.234376 6.632812-7.855469 11.449219-1.628907 4.824219-2.773438 9.445312-3.429688 13.867187-.667969 4.421875-1 9.109375-.992187 14.0625 0 3.265625.101562 6.347656.3125 9.242188l42.4375-44.214844c-4.121094-5.75-9.890625-8.625-17.300782-8.625zm0 0"/><path d="m66.601562 169.234375-5.464843-5.242187 41.433593-43.191407 5.464844 5.242188zm78.070313-45.070313-5.464844-5.242187 41.4375-43.191406 5.460938 5.242187zm0 0"/></g></svg>

<svg xmlns="http://www.w3.org/2000/svg" xmlns:xlink="http://www.w3.org/1999/xlink" width="250px" height="250px" viewBox="0 0 250 250" version="1.1">
<g id="surface1">
<path style=" stroke:none;fill-rule:nonzero;fill:rgb(10.196079%,50.980395%,100%);fill-opacity:1;" d="M 125 0 C 194.035156 0 250 55.964844 250 125 C 250 194.035156 194.035156 250 125 250 C 55.964844 250 0 194.035156 0 125 C 0 55.964844 55.964844 0 125 0 Z M 125 0 "/>
<path style=" stroke:none;fill-rule:nonzero;fill:rgb(100%,100%,100%);fill-opacity:1;" d="M 170.699219 176.472656 C 159.878906 189.730469 144.660156 196.355469 125.042969 196.355469 C 105.425781 196.355469 90.203125 189.730469 79.378906 176.472656 C 68.550781 163.207031 63.136719 146.0625 63.144531 125.035156 C 63.148438 104.007812 68.558594 86.867188 79.371094 73.605469 C 90.191406 60.34375 105.414062 53.710938 125.035156 53.714844 C 144.65625 53.714844 159.875 60.347656 170.691406 73.605469 C 181.515625 86.863281 186.925781 104.007812 186.929688 125.035156 C 186.929688 146.0625 181.519531 163.210938 170.699219 176.472656 Z M 170.699219 176.472656 "/>
<path style=" stroke:none;fill-rule:nonzero;fill:rgb(10.196079%,50.980395%,100%);fill-opacity:1;" d="M 124.8125 168.636719 C 129.980469 168.636719 134.367188 167.230469 137.984375 164.414062 C 141.601562 161.601562 144.222656 157.785156 145.84375 152.964844 C 147.460938 148.144531 148.605469 143.519531 149.269531 139.101562 C 149.9375 134.679688 150.269531 129.992188 150.265625 125.035156 C 150.265625 118.9375 149.894531 113.476562 149.15625 108.65625 L 104.664062 155.019531 C 108.777344 164.09375 115.496094 168.632812 124.8125 168.636719 Z M 124.8125 168.636719 "/>
<path style=" stroke:none;fill-rule:nonzero;fill:rgb(10.196079%,50.980395%,100%);fill-opacity:1;" d="M 125.257812 81.4375 C 120.09375 81.4375 115.703125 82.84375 112.085938 85.65625 C 108.46875 88.472656 105.851562 92.289062 104.230469 97.105469 C 102.601562 101.929688 101.457031 106.550781 100.800781 110.972656 C 100.132812 115.394531 99.800781 120.082031 99.808594 125.035156 C 99.808594 128.300781 99.910156 131.382812 100.121094 134.277344 L 142.558594 90.0625 C 138.4375 84.3125 132.667969 81.4375 125.257812 81.4375 Z M 125.257812 81.4375 "/>
<path style=" stroke:none;fill-rule:nonzero;fill:rgb(10.196079%,50.980395%,100%);fill-opacity:1;" d="M 66.601562 169.234375 L 61.136719 163.992188 L 102.570312 120.800781 L 108.035156 126.042969 Z M 144.671875 124.164062 L 139.207031 118.921875 L 180.644531 75.730469 L 186.105469 80.972656 Z M 144.671875 124.164062 "/>
</g>
</svg>
